!!!COM: Britten, (Edward) Benjamin
!!!OTL: [T801_Bri-w2p16h29m1-8]
**kern	**dynam	**kern	**dynam	**kern	**dynam	**kern	**dynam
*grp:A	*grp:A	*grp:A	*grp:A	*grp:A	*grp:A	*grp:B	*grp:B
*part4	*part4	*part3	*part3	*part2	*part2	*part1	*part1
*staff4	*	*staff3	*	*staff2	*	*staff1	*
*I"Violoncello	*	*I"Viola	*	*I"Violin I	*	*I"Oboe	*
*I'Vc.	*	*I'Vla.	*	*I'Vln. I	*	*I'Ob.	*
!!pagebreak:original
*clefF4	*	*clefC3	*	*clefG2	*	*clefG2	*
*k[]	*	*k[]	*	*k[]	*	*k[]	*
*C:	*	*C:	*	*C:	*	*C:	*
*M3/4	*	*M3/4	*	*M3/4	*	*M3/4	*
!!LO:REH:t=29
=1	=1	=1	=1	=1	=1	=1	=1
!	!	!	!	!	!	!LO:TX:t=[quarter]=61	!
!	!	!	!LO:DY:t=%s sub.	!	!	!LO:TX:a:B:t=Poco a poco accel. e più agitato	!
4ryy	.	2.ryy	4ryy	12ryy	4ryy	(2ggn^	f
.	.	.	.	12ryy	.	.	.
.	.	.	.	12ryy	.	.	.
8ryy	.	.	.	12ryy	.	.	.
.	.	.	.	12ryy	.	.	.
!LO:TX:a:t=pizz.	!LO:DY:t=%s un poco marc.	!	!	!	!	!	!
8ryy	4ryy	.	.	.	.	.	.
.	.	.	.	12ryy	.	.	.
4ryy	.	.	.	12ryy	.	[4cc	>
.	.	.	.	12ryy	.	.	.
.	.	.	.	12ryy	.	.	.
=2	=2	=2	=2	=2	=2	=2	=2
4ryy	.	2.ryy	.	12ryy	.	4cc_	.
.	.	.	.	12ryy	.	.	.
.	.	.	.	12ryy	.	.	.
4ryy	.	.	.	12ryy	.	8cc])	.
.	.	.	.	12ryy	.	.	.
.	.	.	.	.	.	8r	]
.	.	.	.	12ryy	.	.	.
8ryy	.	.	.	12ryy	4ryy	4r	.
.	.	.	.	12ryy	.	.	.
8ryy	.	.	.	.	.	.	.
.	.	.	.	12ryy	4ryy	.	.
=3	=3	=3	=3	=3	=3	=3	=3
4ryy	.	2.ryy	4ryy	12ryy	4ryy	4r	.
.	.	.	.	12ryy	.	.	.
.	.	.	.	12ryy	.	.	.
4ryy	.	.	.	12ryy	.	16r	.
.	.	.	.	.	.	(>16c	pp
.	.	.	.	12ryy	.	.	.
.	.	.	.	.	.	[4.g	.
.	.	.	.	12ryy	.	.	.
4ryy	.	.	.	12ryy	.	.	.
.	.	.	.	12ryy	.	.	.
.	.	.	.	12ryy	.	.	.
!!linebreak:original
=4	=4	=4	=4	=4	=4	=4	=4
8ryy	.	2.ryy	.	12ryy	.	8g])	.
.	.	.	.	12ryy	.	.	.
8ryy	.	.	.	.	.	(4g	.
.	.	.	.	12ryy	.	.	.
4ryy	.	.	.	12ryy	.	.	.
.	.	.	.	12ryy	.	.	.
.	.	.	.	.	.	8a	.
.	.	.	.	12ryy	.	.	.
4ryy	.	.	.	12ryy	.	20eLL	<
.	.	.	.	.	.	20g	.
.	.	.	.	12ryy	.	.	.
.	.	.	.	.	.	20f	.
.	.	.	.	.	.	20e	.
.	.	.	.	12ryy	.	.	.
.	.	.	.	.	.	20dJJ	.
=5	=5	=5	=5	=5	=5	=5	=5
4ryy	.	2.ryy	.	12ryy	.	4g)	[
.	.	.	.	12ryy	.	.	.
.	.	.	.	12ryy	.	.	.
.	.	.	.	.	.	(16qqg/LL	.
.	.	.	.	.	.	16qqa/JJ	.
!	!	!	!	!	!	!	!LO:DY:t=più %s
8ryy	.	.	.	12ryy	.	[2g~	f
.	.	.	.	12ryy	.	.	.
8ryy	.	.	.	.	.	.	.
.	.	.	.	12ryy	.	.	.
4ryy	.	.	.	12ryy	.	.	.
.	.	.	.	12ryy	.	.	.
.	.	.	.	12ryy	.	.	.
=6	=6	=6	=6	=6	=6	=6	=6
4ryy	.	2.ryy	.	12ryy	.	8gL]	<
.	.	.	.	12ryy	.	.	.
.	.	.	.	.	.	8aJ	.
.	.	.	.	12ryy	.	.	.
4ryy	.	.	.	12ryy	.	12eL	[
.	.	.	.	12ryy	.	12d	.
.	.	.	.	12ryy	.	12eJ	.
!	!	!	!	!	!	!LO:TX:a:t=(ten.)	!
8ryy	.	.	.	12ryy	.	16gLL	>
.	.	.	.	.	.	16f	.
.	.	.	.	12ryy	.	.	.
8ryy	.	.	.	.	.	16e	.
.	.	.	.	12ryy	.	.	.
.	.	.	.	.	.	16dJJ	.
=7	=7	=7	=7	=7	=7	=7	=7
4ryy	.	2.ryy	.	12ryy	.	2g)	]
.	.	.	.	12ryy	.	.	.
.	.	.	.	12ryy	.	.	.
4ryy	.	.	.	12ryy	.	.	.
.	.	.	.	12ryy	.	.	.
.	.	.	.	12ryy	.	.	.
.	.	.	.	.	.	(16qqa/LL	.
.	.	.	.	.	.	16qqf#X/JJ	.
4ryy	.	.	.	12ryy	.	[4g^	.
.	.	.	.	12ryy	.	.	.
.	.	.	.	12ryy	.	.	.
=8	=8	=8	=8	=8	=8	=8	=8
8ryy	.	2.ryy	.	12ryy	.	4g])	.
.	.	.	.	12ryy	.	.	.
8ryy	.	.	.	.	.	.	.
.	.	.	.	12ryy	.	.	.
4ryy	.	.	.	12ryy	.	8r	.
.	.	.	.	12ryy	.	.	.
.	.	.	.	.	.	(4g	p
.	.	.	.	12ryy	.	.	.
4ryy	.	.	.	12ryy	.	.	.
.	.	.	.	12ryy	.	.	.
.	.	.	.	.	.	[8a)	.
.	.	.	.	12ryy	.	.	.
=	=	=	=	=	=	=	=
*-	*-	*-	*-	*-	*-	*-	*-
!!!system-decoration: s1[(s2,s3,s4)]
!!!RDF**kern: > = above
!!!RDF**kern: < = below
